X:15722
T:Son d'Arriba
C:Tradicional
S:Msica Tradicional Asturiana, (C) Tello & Tito. Asturies, 2001.
S:http://pagina.de/MusTradAst <telloytito@asturies.org>
N:Ye'l baille ms representativu del conceyu de Cangas del Narcea.
N:Conozse tamin n'otres fasteres d'Asturies y nel norte de Llen con distintos nomes: baille'l pas, baille de las castauelas, garrucha...
N:Lo que ms llama l'atencin ye lo gayaspero del so canciu, asinamesmu que l'allargamientu de les notes finales de cada cuarteta.
N:P'acompaalu sense panderos cuadraos y castaueles grandes, que son esclusives d'esti baille.
O:Cangas del Narcea
A:Asturies
Z:Danzas y Bailes I
M:3/8
L:1/8
Q:3/8=96
K:G
|G G G|G G G|B A/B/ c-|c3|
|A c B|A c B|A B/A/ G-|G A B|
|A B/A/ F-|F A B|A B/A/ G-|G3|
|G G G|F A A|A B/A/ G-|G3-|G3|
